X:1
T:Title
%%score { ( 1 3 ) | ( 2 4 ) }
L:1/8
M:3/4
K:Ab
V:1 treble nm="Grand Piano"
V:3 treble 
V:2 bass 
V:4 bass 
V:1
 z2 z2[Q:1/4=100] [CE][CE] | [CA]3 [DB] [Ec][CA] | [DB] [CA]3 [CA][EG] | [DF]3 [EG] [FA][DF] | %4
[M:2/4] [CE]4 |[M:1/4] EE |[M:3/4] c3 c Bc | [Fd] [Fd]3 [Ec]B | A3 E B>c |[M:2/4] [CA]4 | %10
[M:1/4] AA |[M:3/4] B3 B AB | c c3 cd | e3 c (3cB[A,CA] |[M:2/4] B4 |[M:1/4] c>c | %16
[M:3/4] e3 c [CA]E | F [FA]3 [FA]F | %18
[M:27/32] z/4 z/4 z/4 z/4 z/4 z/4 z/4 z/4 z/4 z/4 z/4 z/4 z/4 z/4 z/ B/4-B/4-B/4-B/4-B/4-B/4-B/-<B/ z/4 | %19
[M:2/4] [CA]4 |] %20
V:2
 z2 z2 [A,,A,][A,,A,] | [A,,E,]3 [A,,A,] [A,,A,][A,,A,] | [A,,A,] [A,,A,]3 [A,,A,][C,A,] | %3
 [D,A,]3 [D,A,] [D,A,][D,A,] |[M:2/4] [A,,A,]4 |[M:1/4] [A,C][A,C] | %6
[M:3/4] [A,E]3 [A,E] [A,D][A,E] | [D,A,] [D,A,]3 [D,A,][D,A,D] | [E,A,C]3 [E,A,C] [E,G,D]>[E,G,E] | %9
[M:2/4] [A,,A,]4 |[M:1/4] [A,C][A,C] |[M:3/4] [E,G,E]3 [E,G,E] [F,A,C][E,G,E] | %12
 [A,E] [A,E]3 [A,E][A,B,E] | [A,CA]3[K:bass] [A,E] (3[A,-E][A,D]A,, |[M:2/4] [E,G,E]4 | %15
[M:1/4][K:treble] [A,E]>[A,E] |[M:3/4] [A,CA]3[K:bass] [A,E] [A,,A,][C,A,] | %17
 [D,A,D] [D,A,]3 [D,A,][D,A,D] | %18
[M:27/32] z/4 z/4 z/4 z/4 z/4 z/4 z/4 z/4 z/4 z/4 z/4 z/4 z/4 z/4 z/ D/4-D/4-D/4-D/4-D/4-D/4-D/-<D/ z/4 | %19
[M:2/4] [A,,A,]4 |] %20
V:3
 x6 | x6 | x6 | x6 |[M:2/4] x4 |[M:1/4] x2 |[M:3/4] x6 | x6 | x6 |[M:2/4] x4 |[M:1/4] x2 | %11
[M:3/4] x6 | x6 | x6 |[M:2/4] x4 |[M:1/4] x2 |[M:3/4] x6 | x6 | %18
[M:27/32] E/4-E/4-E/4-E/4-E/4-E/4-E/4-E/4-E/-<E/A/-<A/ z/4 z/4 z/4 z/4 z/4 z/4 z/ c3/4 | %19
[M:2/4] x4 |] %20
V:4
 x6 | x6 | x6 | x6 |[M:2/4] x4 |[M:1/4] x2 |[M:3/4] x6 | x6 | x6 |[M:2/4] x4 |[M:1/4] x2 | %11
[M:3/4] x6 | x6 | x3[K:bass] x3 |[M:2/4] x4 |[M:1/4][K:treble] x2 |[M:3/4] x3[K:bass] x3 | x6 | %18
[M:27/32] [E,A,C]/4-[E,A,C]/4-[E,A,C]/4-[E,A,C]/4-[E,A,C]/4-[E,A,C]/4-[E,A,C]/4-[E,A,C]/4-[E,A,C]/-<[E,A,C]/[E,A,C]/-<[E,A,C]/[E,G,]/4-[E,G,]/4-[E,G,]/4-[E,G,]/4-[E,G,]/-<[E,G,]/[E,G,E]3/4 | %19
[M:2/4] x4 |] %20

